X:1
T:Title
%%score { ( 1 3 ) | ( 2 4 ) }
L:1/8
Q:1/4=100
M:6/4
K:Ab
V:1 treble nm="Grand Piano"
V:3 treble 
V:2 bass 
V:4 bass 
V:1
 [Ec]2 [Ec]2 [Ec]2 [Ec]2 [=D_c]2 [E=c]2 | [Fd]2 [Ec]2 [DB]2 [CA]6 | %2
w: Charles~Gabriel * * * * *||
 [EA]2 [EA]2 [EA]2 [EA]2 [EG]2 [EA]2 | [FB]2 [FA]2 [DF]2 [CE]6 | [Ee]2 B2 c2 d2 c2 B2 | %5
w: |||
 c2 B2 G2 A6 | [=DB]2 [Dc]2 [DB]2 [F=d]2 [Ec]2 [DB]2 | z6 E6 | e6 z6 | z2 G4- G4[K:bass] z2 | %10
w: |||||
 [Gd]2 d2 d2 F2 G2 F2 | z2 A,2 A,2 A,4 .c.d | e2 c2 A2 [Ae]2 [Ec]2 [Ae]2 | %13
w: |||
 [=Af]2 [Fc]2 [Fe]2 [Fd]2 [Fc]2 [FB]2 |[M:13/8] [Ae]2 [Ee]2 [FA]2 c2 c3 B2 |[M:6/4] [CEA]12 |] %16
w: |||
V:2
 [A,,A,]2 [A,,A,]2 [A,,A,]2 [A,,A,]2 [A,,A,]2 [A,,A,]2 | [A,,A,]2 [A,,A,]2 [A,,A,]2 [A,,A,]6 | %2
 [C,A,]2 [C,A,]2 [C,A,]2 [C,A,]2 [C,A,]2 [C,A,]2 | [D,D]2 [D,D]2 [D,A,]2 [A,,A,]6 | %4
 [B,,G,]2 [E,G,D]2 [E,A,E]2 [E,B,E]2 [E,A,E]2 [E,G,E]2 | [=E,G,C]2 [E,G,C]2 [E,B,C]2 [F,A,C]6 | %6
 [B,,A,]2 [B,,A,]2 [B,,F,]2 [B,,B,]2 [B,,B,]2 [B,,B,]2 | B,,2 B,,2 B,,2 E,2 F,2 G,2 | %8
 [A,CA]2 [A,C]2 [A,C]2 [A,EA]2 [A,DE]2[K:bass] [A,CE]2 | [B,DE]2 [B,DE]2 [E,D]2 [B,D]2 .[E,D]4 | %10
 z2[K:treble] G2 G2[K:bass] [E,G,D]2 [E,G,E]2 [E,G,D]2 | [A,,A,]2 A,,2 A,,2 A,,4[K:treble] .A.B | %12
 [A,CA]2 [A,E]2 [A,CE]2[K:bass] [_G,C]2 [G,A,]2 [F,C]2 | %13
 [F,C]2 [F,=A,]2 [F,A,]2 [B,,B,]2 [C,A,]2 [D,B,]2 | %14
[M:13/8] [C,A,]2 [C,A,]2 [D,A,]2 [E,A,E]2 [E,A,E]3 [E,DE]2 |[M:6/4] A,,12 |] %16
V:3
 x12 | x12 | x12 | x12 | x12 | x12 | x12 | [C=DA]2 [B,DG]2 [A,DF]2 G,2 A,2 B,2 | %8
 z2 A2 A2 c2 B2 A2 | .A4 E2 E2 E2[K:bass] G,F, | x12 | [CE]12 | x12 | x12 |[M:13/8] x13 | %15
[M:6/4] x12 |] %16
V:4
 x12 | x12 | x12 | x12 | x12 | x12 | x12 | x12 | x10[K:bass] x2 | x12 | %10
 [E,B,]6[K:treble][K:bass] z6 | x10[K:treble] x2 | x6[K:bass] x6 | x12 |[M:13/8] x13 | %15
[M:6/4] x12 |] %16

